app/dist/common/images/matinas-biopharma.svg

<svg height="18" width="18" xmlns="http://www.w3.org/2000/svg"><path d="m0 0h18v18h-18z" fill="#fbba07"/><path d="m4 6h1.33l3.67 5 3.672-4.996h1.328v5.996h-1v-4.724l-3.5 4.724h-1l-3.5-4.724v4.724h-1z" fill="#060a30"/></svg>

<!-- by TradingView --><svg width="18" height="18" xmlns="http://www.w3.org/2000/svg"><path fill="#FBBA07" d="M0 0h18v18H0z"/><path d="M4 6h1.33L9 11l3.672-4.996H14V12h-1V7.276L9.5 12h-1L5 7.276V12H4V6z" fill="#060A30"/></svg>
